modules/zondicons/icons/hour-glass.svg

<?xml version="1.0" encoding="UTF-8" standalone="no"?>
<svg width="20px" height="20px" viewBox="0 0 20 20" version="1.1" xmlns="http://www.w3.org/2000/svg" xmlns:xlink="http://www.w3.org/1999/xlink">
    <!-- Generator: Sketch 3.7.2 (28276) - http://www.bohemiancoding.com/sketch -->
    <title>hour-glass</title>
    <desc>Created with Sketch.</desc>
    <defs></defs>
    <g id="Page-1" stroke="none" stroke-width="1" fill="none" fill-rule="evenodd">
        <g id="hour-glass" fill="#000000">
            <path d="M17,18 C17,15.207604 15.3649473,12.7970951 13,11.6736312 L13,8.32636884 C15.3649473,7.2029049 17,4.79239596 17,2 L19,2 L19,0 L1,0 L1,2 L3,2 C3,4.79239596 4.63505267,7.2029049 7,8.32636884 L7,11.6736312 C4.63505267,12.7970951 3,15.207604 3,18 L1,18 L1,20 L19,20 L19,18 L17,18 Z M15,2 C15,4.41895791 13.2822403,6.43671155 11,6.89998188 L11,7.96455557 L11,10 L9,10 L9,7.96455557 L9,6.89998188 C6.71775968,6.43671155 5,4.41895791 5,2 L15,2 Z" id="Combined-Shape"></path>
        </g>
    </g>
</svg>

<svg width="20" height="20" viewBox="0 0 20 20" xmlns="http://www.w3.org/2000/svg"><path d="M17 18a7 7 0 0 0-4-6.326V8.326A7 7 0 0 0 17 2h2V0H1v2h2a7 7 0 0 0 4 6.326v3.348A7 7 0 0 0 3 18H1v2h18v-2h-2zM15 2a5.002 5.002 0 0 1-4 4.9V10H9V6.9A5.002 5.002 0 0 1 5 2h10z" fill="#000" fill-rule="evenodd"/></svg>
